!!!!SEGMENT: pl-gd--ee-2628--006-010_stabile-annibale--il-terzo-libro-de-madrigali-a-cinque-voci-da-quei-begli-occhi.krn
!!!cenid: 15xx:1077
!!!COM: Stabile, Annibale
!!!COM-rismID:
!!!CDT: ~1535-1595/04
!!!CNT: Italian
!!!GTL: Il terzo libro de madrigali a cinque voci
!!!OTL: Da quei begli occhi
!!!OMV: 010
!!!PDT: 1585
!!!AGN:
!!!SMS-siglum: PL-GD
!!!SMS-shelfmark: Ee 2628
!!!SMS-shelfwork: 006-010 G
!!!SMS-variant:
!!!SMS-altvar:
!!!NIFC-rismSourceID: 990060530
!!!NIFC-islandoraID: pl-gd:66139
!!!URL-pdf-islandora: https://repozytorium.nifc.pl/islandora/object/pl-gd%3A66139/datastream/PDF/view
!!!URL-scan: https://polish.musicsources.pl/pl/lokalizacje/galeria/klocki-introligatorskie/673 @EN{Scan on Polish Music Herritage in Open Access Website} @PL{Skany w portalu Dziedzictwo Muzyki Polskiej w otwartym dostępie}
!!!ONB-nifc: UWAGA: Canto: s. 90-101, Tenore: s. 246-257, Basso: s. 402-413, Quinto: s. 724-735. Dla głosu Alto proszę skorzystać z https://pbc.gda.pl/dlibra/publication/87582/edition/79411/content, str. 25-48. Uwaga: utwory podzielone wg spisu treści dostępnych na końcu ksiąg – proszę sprawdzać sąsiednie tytuły. Głos Quinto proszę umieszczać wg ambitusu (może się różnić w zależności od utworu).
!!!AIN: 1 alto 1 bass 1 soprn 1 tenor 1 vox
!!!key: d
**kern	**text	**kern	**text	**kern	**text	**kern	**text	**kern	**text
*part5	*part5	*part4	*part4	*part3	*part3	*part2	*part2	*part1	*part1
*staff5	*staff5	*staff4	*staff4	*staff3	*staff3	*staff2	*staff2	*staff1	*staff1
*I"BASSO	*	*I"TENORE	*	*I"ALTO	*	*I"QVINTO	*	*I"CANTO	*
*I'B	*	*I'T	*	*I'A	*	*I'V	*	*I'S	*
*ICvox	*	*ICvox	*	*ICvox	*	*ICvox	*	*ICvox	*
*Ibass	*	*Itenor	*	*Ialto	*	*Ivox	*	*Isoprn	*
*clefF3	*	*clefC3	*	*clefC2	*	*clefG2	*	*clefG2	*
*k[b-]	*	*k[b-]	*	*k[b-]	*	*k[b-]	*	*k[b-]	*
*d:	*	*d:	*	*d:	*	*d:	*	*d:	*
*M2/1	*	*M2/1	*	*M2/1	*	*M2/1	*	*M2/1	*
*met(C)	*	*met(C)	*	*met(C)	*	*met(C)	*	*met(C)	*
=1-	=1-	=1-	=1-	=1-	=1-	=1-	=1-	=1-	=1-
!LO:TX:t=P:problem:podwójnie zapisany znak przykluczowy: BB- B-	!	!	!	!LO:TX:a:t=Prima parte	!	!LO:TX:a:t=Prima parte	!	!	!
!	!	!LO:TX:a:t=Prima parte	!	!LO:TX:t=P:problem:podwójnie zapisany znak przykluczowy: B- b-	!	!	!	!	!
0r	.	1r	.	1r	.	2r	.	2dd\	DA
.	.	.	.	.	.	2g/	DA	4gg\	quei
.	.	.	.	.	.	.	.	4gg\	begl'
.	.	2r	.	2d/	DA	4dd\	quei	2ff\	oc-
.	.	.	.	.	.	4dd\	begl'	.	.
.	.	2G/	DA	4g\	quei	2b-/	oc-	1dd\	-chi on-
.	.	.	.	4g\	begl'-	.	.	.	.
=2-	=2-	=2-	=2-	=2-	=2-	=2-	=2-	=2-	=2-
2D/	DA	4d\	quei	4f\	-oc-	8a/	-chi	.	.
.	.	.	.	.	.	8g/	on-	.	.
.	.	4d\	begl'-	4a\	-chi on-	8f/	.	.	.
.	.	.	.	.	.	8e/	.	.	.
4G\	quei	2B-/	oc-	4g\	-de a-	4d/	.	2dd\	-de a-
4G\	begl'	.	.	4d/	-mor	4g/	-de a-	.	.
2F/	oc-	8A/	-chi	4a\	l'eſ-	4cc\	-mor	2ff\	-mor
.	.	8G/	on-	.	.	.	.	.	.
.	.	8A/	.	4a\	-c'ac-	4.cc\	l'e-	.	.
.	.	8B-/	.	.	.	.	.	.	.
4C/	-chi on-	4c/	.	2g\	-cen-	.	.	4ee-X\	l'eſ-
.	.	.	.	.	.	8b-\	.	.	.
4C/	-de a-	4c/	-de a-	.	.	8g/	.	4ee-\	-ca ac-
.	.	.	.	.	.	8a/	.	.	.
*	*	*	*	*	*	*custos:b-	*	*	*
!	!	!	!	!	!	!LO:LB:g=original	!	!	!
=3-	=3-	=3-	=3-	=3-	=3-	=3-	=3-	=3-	=3-
2G\	-mor	4B-/	-mor	2g\	-de	4.b-\	.	8dd\	-cen-
.	.	.	.	.	.	.	.	8cc\	.
.	.	8G/	l'e-	.	.	.	.	8b-/	.
.	.	8A/	.	.	.	16cc\	.	8a/	.
.	.	.	.	.	.	16dd\	.	.	.
*	*	*	*	*	*	*	*	*custos:g	*
!	!	!	!	!f	!	!	!	!LO:LB:g=original	!
4E-X/	l'eſc'	8B-/	.	2r	.	4ee-X\	.	8g/	.
.	.	8c\	.	.	.	.	.	8a/	.
4BB-/	ac-	8d\	.	.	.	4dd\	-ſc'ac-	8b-/	.
.	.	8B-/	.	.	.	.	.	8g/	.
*	*	*custos:c	*	*custos:f	*	*	*	*	*
!	!	!LO:LB:g=original	!	!LO:LB:g=original	!	!	!	!	!
1F	-cen-	4c/	.	2r	.	4cc\	-cen-	4a/	.
.	.	4d\	-ſc'ac-	.	.	2b-/	.	4b-/	.
.	.	2c/	-cen-	2f\	Che	.	.	2cc\	.
.	.	.	.	.	.	4a/	.	.	.
*custos:BB-	*	*	*	*	*	*	*	*	*
!LO:LB:g=original	!	!	!	!	!	!	!	!	!
=4-	=4-	=4-	=4-	=4-	=4-	=4-	=4-	=4-	=4-
1BB-	-de	2B-/	-de	2.f\	fo-	1b-	-de	2dd\	-de
.	.	2B-/	Che	.	.	.	.	2dd\	Che
.	.	.	.	4g\	-co au-	.	.	.	.
2r	.	4F/	fo-	8a\	-am-	2r	.	4cc\	fo-
.	.	.	.	8g\	.	.	.	.	.
.	.	4F/	-co au-	8f\	.	.	.	4cc\	-co au-
.	.	.	.	8e\	.	.	.	.	.
2B-\	Che	4G/	-ã(m)-	8d/	.	2dd\	Che	4b-/	-am-
.	.	.	.	8c/	.	.	.	.	.
.	.	4G/	-pa in	8d/	.	.	.	4b-/	-pa in
.	.	.	.	8e/	.	.	.	.	.
=5-	=5-	=5-	=5-	=5-	=5-	=5-	=5-	=5-	=5-
4F/	fo-	2A/	me	2f\	.	4cc\	fo-	2a/	me
4F/	-co au-	.	.	.	.	4cc\	-co au-	.	.
*	*	*	*	*	*	*	*	*custos:g	*
!	!	!	!	!	!	!	!	!LO:LB:g=original	!
4G\	-am-	2r	.	2d/	-pa in	4b-/	-am-	2g/	chia-
4G\	-pa in	.	.	.	.	4b-/	-pa in	.	.
2D/	me	2r	.	4d/	me	2a/	me	2f#X/	-ro e
.	.	.	.	4d/	chia	.	.	.	.
*	*	*	*ij	*custos:d	*	*	*	*	*
!	!	!	!	!LO:LB:g=original	!	!LO:N:acc=#	!	!	!
2G\	chia-	4r	.	4d/	ro e	2bn/	chia-	2g/	ſe-
.	.	4G/	Che	4d/	ſe-	.	.	.	.
=6-	=6-	=6-	=6-	=6-	=6-	=6-	=6-	=6-	=6-
2F/	-ro e	4c/	fo-	4.f\	-re-	2cc\	-ro e	2a/	-re-
.	.	4A/	-co au-	.	.	.	.	.	.
.	.	.	.	8g\	.	.	.	.	.
2D/	ſe-	4A/	-am-	4a\	.	2dd\	ſe-	2fny/	-no
.	.	4B-/	-pa in	4f\	-no	.	.	.	.
*	*	*	*	*	*	*custos:ee-	*	*	*
!	!	!	!	!	!	!LO:LB:g=original	!	!	!
1C	-re-	4c/	me	4r	.	1ee-X	-re-	4r	.
*	*	*	*Xij	*	*	*	*	*	*
.	.	4G/	chia-	2g\	chia-	.	.	4cc\	chia-
.	.	8c/	-ro e-	.	.	.	.	4.cc\	-ro e
.	.	8B-/	.	.	.	.	.	.	.
.	.	8A/	.	2cc\	-ro e	.	.	.	.
.	.	8G/	.	.	.	.	.	8b-/	.
*custos:D	*	*	*	*	*	*	*	*	*
!LO:LB:g=original	!	!	!	!	!	!	!	!	!
=7-	=7-	=7-	=7-	=7-	=7-	=7-	=7-	=7-	=7-
1D	-no	4F/	.	.	.	0dd	-no	4a/	.
.	.	4G/	-ſe-	4b-\	ſe-	.	.	4g/	ſe-
*	*	*custos:A	*	*	*	*	*	*	*
!	!	!LO:LB:g=original	!	!	!	!	!	!	!
.	.	2A/	-re-	2a\	-re-	.	.	2f#X/	-re-
!	!	!	!	!LO:N:acc=#	!	!	!	!	!
2r	.	1G	-no	2bn\	-no	.	.	1g	-no
2G\	Piog-	.	.	4r	.	.	.	.	.
.	.	.	.	4g\	Piog-	.	.	.	.
=8-	=8-	=8-	=8-	=8-	=8-	=8-	=8-	=8-	=8-
4A\	-gia	2r	.	4f\	-gia	1r	.	2r	.
4.c\	veg-	.	.	4.e/	veg-	.	.	.	.
.	.	4r	.	.	.	.	.	4r	.
8A\	-gio	.	.	8f\	-gio	.	.	.	.
!LO:N:acc=#	!	!	!	!	!	!	!	!	!
4Bn\	ca-	4G/	Piog-	4d/	ca-	.	.	4gg\	Piog-
2c\	-der	4A/	-gia	2c/	-der	2r	.	4ff\	-gia
.	.	4.c/	veg-	.	.	.	.	4.eeny\	veg-
4r	.	.	.	2r	.	4r	.	.	.
.	.	8A/	-gio	.	.	.	.	8ff\	-gio
!	!	!LO:N:acc=#	!	!	!	!	!	!	!
*	*ij	*	*	*	*	*	*	*	*
4G\	Piog-	4Bn/	ca-	.	.	4gg\	Piog-	4dd\	ca-
*	*	*	*	*	*	*	*	*custos:cc	*
!	!	!	!	!	!	!	!	!LO:LB:g=original	!
=9-	=9-	=9-	=9-	=9-	=9-	=9-	=9-	=9-	=9-
4A\	-gia	2c/	-der	2r	.	4ff\	-gia	2cc\	-der
4.c\	veg-	.	.	.	.	4.eeny\	veg-	.	.
.	.	2r	.	4r	.	.	.	2r	.
8A\	-gio	.	.	.	.	8ff\	-gio	.	.
!LO:N:acc=#	!	!	!	!	!	!	!	!	!
4Bn\	ca-	.	.	4g\	nel	4dd\	ca-	.	.
*	*	*	*	*custos:e	*	*	*	*	*
!	!	!	!	!LO:LB:g=original	!	!	!	!	!
2c\	-der	4r	.	4e/	va-	2cc\	-der	2gg\	nel
.	.	4c/	nel	4e/	-go	.	.	.	.
*	*Xij	*	*	*	*	*	*	*	*
2F/	nel	4A/	va-	1a\	ſe-	2cc\	nel	2.ff\	va-
.	.	4A/	-go	.	.	.	.	.	.
=10-	=10-	=10-	=10-	=10-	=10-	=10-	=10-	=10-	=10-
4D/	va-	8d\	ſe-	.	.	4dd\	va-	.	.
.	.	8e\	.	.	.	.	.	.	.
4D/	-go	8f\	.	.	.	4dd\	-go	4ff\	-go
.	.	8d\	.	.	.	.	.	.	.
2A\	ſe-	4e\	.	2a\	-no	4.cc#X\	ſe-	2ee\	ſe-
.	.	4A/	-no	.	.	.	.	.	.
.	.	.	.	.	.	8dd\	.	.	.
*custos:A	*	*	*	*	*	*	*	*	*
!LO:LB:g=original	!	!	!	!	!	!	!	!	!
4A\	-no	4r	.	2a\	Che'l	4ee\	.	4cc#X\	-no
4A\	Che'l	4c#X/	Che'l	.	.	4a/	-no	4ee\	Che'l
4d\	pre-	4d\	pre-	4a\	pre-	2r	.	4ff\	pre-
4c\	-gio a	4e\	-gio a	4a\	-gio a	.	.	4ee\	-gio a
*	*	*custos:f	*	*	*	*	*	*	*
!	!	!LO:LB:g=original	!	!	!	!	!	!	!
=11-	=11-	=11-	=11-	=11-	=11-	=11-	=11-	=11-	=11-
4.B-y\	per-	4.f\	per-	4.b-y\	per-	1r	.	4.dd\	per-
8B-\	-le or-	8f\	-le or-	8b-\	-le or-	.	.	8dd\	-le or-
4B-\	-ien-	4f\	-ient	4b-\	-ient	.	.	4dd\	-ien-
4F/	-tal	4f\	al	4a\	al	.	.	4ccny\	-tal
*	*	*	*	*	*	*custos:ee	*	*	*
!	!	!	!	!	!	!LO:LB:g=original	!	!	!
4G\	.	4e\	.	4.g\	.	2r	.	4cc\	.
4G\	con-	4d\	con-	.	.	.	.	4b-/	con-
.	.	.	.	8f\	.	.	.	.	.
2A\	-ten-	2c#X/	-ten-	4e/	.	2ee\	E il	2a/	-ten-
.	.	.	.	4e/	con-	.	.	.	.
=12-	=12-	=12-	=12-	=12-	=12-	=12-	=12-	=12-	=12-
1D	-de	2d\	-de	2d/	-ten-	2.ff\	cor	2a/	-de
.	.	2d\	E il	2A/	-de	.	.	2a/	E il
.	.	.	.	.	.	4ee\	che	.	.
*	*	*	*	*	*	*	*	*custos:b	*
!	!	!	!	!	!	!	!	!LO:LB:g=original	!
!	!	!	!	!	!	!	!	!LO:N:acc=#	!
2r	.	2g\	cor	4r	.	2dd\	ci-	2bn/	cor'
.	.	.	.	2G/	E il	.	.	.	.
2G\	E il	2g\	che	.	.	2dd\	-bo	2b/	e il
.	.	.	.	2g\	cor	.	.	.	.
=13-	=13-	=13-	=13-	=13-	=13-	=13-	=13-	=13-	=13-
2c\	cor	4e\	ci-	.	.	4ee\	ſol	1cc	cor
.	.	4cny/	-bo	4g\	che	4gg\	dal	.	.
*	*	*	*	*custos:e	*	*	*	*	*
!	!	!	!	!LO:LB:g=original	!	!	!	!	!
2c\	che	2g\	ſol	4e/	ci-	8gg\	ri-	.	.
.	.	.	.	.	.	8ff\	.	.	.
.	.	.	.	4c/	-bo	8ee\	.	.	.
.	.	.	.	.	.	8dd\	.	.	.
2A\	ci-	4r	.	0cc	ſol	4ee\	.	4r	.
.	.	4c/	dal	.	.	4ee\	-ſo	4e/	che
2F/	-bo	8A/	ri-	.	.	2ff\	pren-	4a/	ci-
.	.	8B-y/	.	.	.	.	.	.	.
.	.	8c/	.	.	.	.	.	4a/	-bo
.	.	8d\	.	.	.	.	.	.	.
*custos:c	*	*	*	*	*	*	*	*	*
!LO:LB:g=original	!	!	!	!	!	!	!	!	!
=14-	=14-	=14-	=14-	=14-	=14-	=14-	=14-	=14-	=14-
2.c\	ſol	8e\	.	.	.	2gg\	-de	4g/	ſol
.	.	8d\	.	.	.	.	.	.	.
.	.	8e\	.	.	.	.	.	4gg\	dal
.	.	8f\	.	.	.	.	.	.	.
.	.	2g\	.	.	.	4r	.	8gg\	ri-
.	.	.	.	.	.	.	.	8ff\	.
4c\	dal	.	.	.	.	2g/	dal	8ee\	.
.	.	.	.	.	.	.	.	8dd\	.
8c\	ri-	2e\	-ſo	4r	.	.	.	2.cc\	.
8B-\	.	.	.	.	.	.	.	.	.
8A\	.	.	.	4cc\	dal	4.a/	ri-	.	.
8G\	.	.	.	.	.	.	.	.	.
*	*	*custos:f	*	*	*	*	*	*	*
!	!	!LO:LB:g=original	!	!	!	!	!	!	!
2.F/	.	2f\	pren-	8cc\	ri-	.	.	.	.
.	.	.	.	8b-\	.	8g/	.	.	.
.	.	.	.	8a\	.	8a/	.	4cc\	-ſo
.	.	.	.	8g\	.	8b-y/	.	.	.
*	*	*	*	*	*	*custos:cc	*	*	*
!	!	!	!	!	!	!LO:LB:g=original	!	!	!
=15-	=15-	=15-	=15-	=15-	=15-	=15-	=15-	=15-	=15-
.	.	2c/	-de	4a\	.	4ccny\	.	2ff\	pren-
4F/	-ſo	.	.	4a\	-ſo	4cc\	-ſo	.	.
2G\	pren-	2r	.	2g\	pren-	2b-/	pren-	1dd	-de
1D	-de	2r	.	2f#X\	-de	2a/	-de	.	.
.	.	2d\	Di	2a\	Di	2dd\	Di	4r	.
.	.	.	.	.	.	.	.	4ff\	Di
=16-	=16-	=16-	=16-	=16-	=16-	=16-	=16-	=16-	=16-
0r	.	4c#X/	ſi	4a\	ſi	4ee\	ſi	4ee\	ſi
.	.	4d\	bel	4a\	bel	4ff#X\	bel	4dd\	bel
*	*	*	*	*	*	*	*	*custos:dd	*
!	!	!	!	!	!	!	!	!LO:LB:g=original	!
.	.	2G/	vol-	2b-\	vol-	2gg\	vol-	2dd\	vol-
.	.	4A/	-to	4a\	-to	4ffny\	-to	4cc\	-to
.	.	2c#/	di	2g\	di	2ee\	di	2cc\	di
.	.	4d\	dol-	4f#X\	dol-	4dd\	dol-	4b-y/	dol-
=17-	=17-	=17-	=17-	=17-	=17-	=17-	=17-	=17-	=17-
1r	.	4d\	-cez-	4f#X\	-cez-	4dd\	-cez-	4a/	-cez-
.	.	4e-X\	-za	4g\	-za	4cc\	-za	4g/	-za
.	.	2d\	pie-	2f#X\	pie-	2dd\	pie-	2a/	pie-
*	*	*	*	*custos:g	*	*	*	*	*
!	!	!	!	!LO:LB:g=original	!	!	!	!	!
4r	.	4G/	-no	4g\	-no	1dd	-no	4b-/	-no
4G\	Di	4d\	Di	4b-\	Di	.	.	4g/	Di
4F#X/	ſi	4d\	ſi	4a\	ſi	.	.	4a/	ſi
!	!	!	!	!	!	!	!	!LO:N:acc=#	!
4G\	bel	4d\	bel	4g\	bel	.	.	4bn/	bel
=18-	=18-	=18-	=18-	=18-	=18-	=18-	=18-	=18-	=18-
2C/	vol-	2e-X\	vol-	4g\	vol-	0r	.	2cc\	vol-
.	.	.	.	4g\	-to	.	.	.	.
4D/	-to e	4d\	-to	4fny\	di	.	.	2a/	-to
2Fny/	di	4.cny/	di	4f\	dol-	.	.	.	.
.	.	.	.	4a\	-cez-	.	.	4cc\	di
.	.	8A/	dol-	.	.	.	.	.	.
*	*	*custos:d	*	*	*	*	*	*	*
!	!	!LO:LB:g=original	!	!	!	!	!	!	!
4G\	dol-	4d\	-cez-	8g\	.	.	.	4b-y/	dol-
.	.	.	.	8f\	.	.	.	.	.
*custos:A	*	*	*	*	*	*	*	*	*
!LO:LB:g=original	!	!	!	!	!	!	!	!	!
4A\	-cez-	4c/	-za	4e\	.	.	.	4a/	-cez-
4B-\	-za	4.d\	pie-	4d/	-za	.	.	4g/	-za
=19-	=19-	=19-	=19-	=19-	=19-	=19-	=19-	=19-	=19-
2A\	pie-	.	.	2e/	pie-	2r	.	2a/	pie-
.	.	8c#X\	.	.	.	.	.	.	.
.	.	4c#\	.	.	.	.	.	.	.
2D/	-no	2d\	-no	2f#X\	-no	2dd\	Hor	2a/	-no
*	*	*	*	*	*	*	*	*custos:dd	*
!	!	!	!	!	!	!	!	!LO:LB:g=original	!
2r	.	1r	.	2r	.	4.b-\	can-	4r	.
.	.	.	.	.	.	.	.	4dd\	Hor
.	.	.	.	.	.	8cc\	.	.	.
*	*	*	*	*	*	*custos:dd	*	*	*
!	!	!	!	!	!	!LO:LB:g=original	!	!	!
2G\	Hor	.	.	2g\	Hor	4dd\	.	8b-/	can-
.	.	.	.	.	.	.	.	8cc\	.
.	.	.	.	.	.	4b-/	-gia	8dd\	.
.	.	.	.	.	.	.	.	8ee\	.
=20-	=20-	=20-	=20-	=20-	=20-	=20-	=20-	=20-	=20-
8F/	can-	4r	.	2a\	can-	2cc\	vo-	2ff\	.
8G\	.	.	.	.	.	.	.	.	.
8A\	.	4cny/	Hor	.	.	.	.	.	.
8B-\	.	.	.	.	.	.	.	.	.
4c\	.	2c/	can-	4g\	-gia	2cc\	-glia	2ee\	-gia
4C/	-gia	.	.	2cc\	vo-	.	.	.	.
2G\	vo-	2d\	-gia	.	.	4r	.	2dd\	vo-
.	.	.	.	4b-\	-glia e	4g/	et	.	.
2C/	-glia et	2eny\	vo-	4.cc\	per	4g/	per	2cc\	-glia
.	.	.	.	.	.	4g/	non	.	.
.	.	.	.	8b-\	.	.	.	.	.
*	*	*	*	*custos:a	*	*	*	*	*
!	!	!	!	!LO:LB:g=original	!	!	!	!	!
=21-	=21-	=21-	=21-	=21-	=21-	=21-	=21-	=21-	=21-
2F/	per	2c/	-glia e	2a\	.	2f/	ve-	1r	.
4Eny/	non	2.c/	per	4g\	non	4g/	-nir	.	.
2F/	ve-	.	.	2fny\	ve-	4.a/	me-	.	.
.	.	.	.	.	.	.	.	00r	.
.	.	.	.	.	.	8b-\	.	.	.
4A\	-nir	4c/	non	4e/	-nir	8cc\	.	.	.
.	.	.	.	.	.	8a/	.	.	.
2G\	me-	4d\	ve-	2g\	me-	2b-/	.	.	.
.	.	4e\	-nir	.	.	.	.	.	.
*custos:F	*	*	*	*	*	*	*	*	*
!LO:LB:g=original	!	!	!	!	!	!	!	!	!
=22-	=22-	=22-	=22-	=22-	=22-	=22-	=22-	=22-	=22-
1F	-no	2f\	me-	2c/	-no	1a	-no	.	.
.	.	4c/	-no	1cc	Da	.	.	.	.
.	.	4f\	Da-	.	.	.	.	.	.
00r	.	2e\	-le	.	.	1r	.	.	.
.	.	2.d\	la-	2b-\	le	.	.	.	.
=23-	=23-	=23-	=23-	=23-	=23-	=23-	=23-	=23-	=23-
.	.	.	.	2.a\	la-	1ff	Da	.	.
.	.	4d\	-gri-	.	.	.	.	.	.
.	.	2d\	-me	.	.	.	.	.	.
.	.	.	.	4f\	-gri-	.	.	.	.
.	.	2c/	ſue	1g	-me	2ee\	le	1r	.
.	.	2B-/	ſa-	.	.	2.dd\	la-	.	.
=24-	=24-	=24-	=24-	=24-	=24-	=24-	=24-	=24-	=24-
.	.	4.B-/	-lu-	2.f\	ſue	.	.	2r	.
.	.	.	.	.	.	4dd\	-gri-	.	.
.	.	8c\	.	.	.	.	.	.	.
*	*	*	*	*	*	*custos:dd	*	*	*
!	!	!	!	!	!	!LO:LB:g=original	!	!	!
.	.	4d\	.	.	.	2dd\	-me	1ff	Da
.	.	4e\	.	4g\	ſa-	.	.	.	.
0r	.	2f\	.	2a\	-lu-	2cc\	ſue	.	.
.	.	2c/	-te at-	2g\	-te	1cc\	ſa-	2ee\	le
=25-	=25-	=25-	=25-	=25-	=25-	=25-	=25-	=25-	=25-
.	.	1g	-ten-	1r	.	.	.	2.dd\	la-
.	.	.	.	.	.	1b-	-lu-	.	.
.	.	.	.	.	.	.	.	4dd\	-gri-
1r	.	2e\	-de	0r	.	.	.	0cc	-me
.	.	1f\	Da	.	.	2a/	-te at-	.	.
=26-	=26-	=26-	=26-	=26-	=26-	=26-	=26-	=26-	=26-
2r	.	.	.	.	.	1g	-ten-	.	.
1c	Da	2e\	le	.	.	.	.	.	.
.	.	2.d\	la-	2r	.	1g	-de	1dd	ſue
2B-\	le	.	.	2g\	Da	.	.	.	.
.	.	4d\	-gri-	.	.	.	.	.	.
=27-	=27-	=27-	=27-	=27-	=27-	=27-	=27-	=27-	=27-
2.A\	la-	1c	-me	2f\	le	2r	.	1r	.
.	.	.	.	2.e/	la-	1cc	Da	.	.
4A\	-gri-	.	.	.	.	.	.	.	.
2A\	-me	2r	.	.	.	.	.	00r	.
.	.	.	.	4c/	-gri-	.	.	.	.
2G\	ſue	2g\	Da	1d/	-me	2b-/	le	.	.
*	*	*custos:f	*	*custos:c#	*	*	*	*	*
!	!	!LO:LB:g=original	!	!LO:LB:g=original	!	!	!	!	!
=28-	=28-	=28-	=28-	=28-	=28-	=28-	=28-	=28-	=28-
1A	ſa-	2f\	le	.	.	1a	la-	.	.
.	.	2.e\	la-	2c#X/	ſue	.	.	.	.
*	*	*	*	*	*	*	*	*	*
2B-\	-lu-	.	.	1d	ſa-	2f/	-gri-	.	.
.	.	4d\	-gri-	.	.	.	.	.	.
2B-\	-te at-	2.d\	-me	.	.	2g/	-me	.	.
=29-	=29-	=29-	=29-	=29-	=29-	=29-	=29-	=29-	=29-
1A	-ten-	.	.	2e/	-lu-	0a	ſue	.	.
.	.	8c#X/	.	.	.	.	.	.	.
!	!	!LO:N:acc=#	!	!	!	!	!	!	!
.	.	8Bn/	.	.	.	.	.	.	.
.	.	2c#X/	.	2e/	-te at-	.	.	.	.
2D/	-de	2.d\	ſue	2.f\	-ten-	.	.	2r	.
1d\	Da	.	.	.	.	.	.	1ff\	Da
.	.	8c#/	.	4g\	.	.	.	.	.
.	.	8B/	.	.	.	.	.	.	.
*	*	*	*	*	*	*	*	*custos:ee	*
!	!	!	!	!	!	!	!	!LO:LB:g=original	!
=30-	=30-	=30-	=30-	=30-	=30-	=30-	=30-	=30-	=30-
.	.	1A	.	1a	.	1r	.	.	.
2c\	le	.	.	.	.	.	.	2ee\	le
*	*	*	*	*	*	*	*	*	*
2.B-\	la-	00r	.	2d/	-de	1r	.	2.dd\	la-
.	.	.	.	1f\	Da	.	.	.	.
4B-\	-gri-	.	.	.	.	.	.	4dd\	-gri-
*custos:A	*	*	*	*	*	*	*	*	*
!LO:LB:g=original	!	!	!	!	!	!	!	!	!
=31-	=31-	=31-	=31-	=31-	=31-	=31-	=31-	=31-	=31-
2A\	-me	.	.	.	.	2r	.	2cc\	-me
1B-	ſue	.	.	2f\	le	1ff	Da	1dd	ſue
.	.	.	.	2.g\	la-	.	.	.	.
2c\	ſa-	.	.	.	.	2ee\	le	2cc\	ſa-
.	.	.	.	4a\	-gri-	.	.	.	.
=32-	=32-	=32-	=32-	=32-	=32-	=32-	=32-	=32-	=32-
2d\	-lu-	.	.	2f\	-me	2.dd\	la-	2a/	-lu-
2B-\	-te at-	.	.	2d/	ſue	.	.	2g/	-te at-
.	.	.	.	.	.	4dd\	-gri-	.	.
*	*	*	*	*	*	*custos:cc#	*	*	*
!	!	!	!	!	!	!LO:LB:g=original	!	!	!
4A\	-ten-	2r	.	2e/	ſa-	2cc#X\	-me	1a	-ten-
4G\	.	.	.	.	.	.	.	.	.
4F/	.	2A/	ſa-	1f\	-lu-	1dd\	ſue	.	.
4E/	.	.	.	.	.	.	.	.	.
=33-	=33-	=33-	=33-	=33-	=33-	=33-	=33-	=33-	=33-
!	!	!	!	!	!	!	!	!LO:N:vis=00	!
2D/	.	2A/	-lu-	.	.	.	.	000a/	-de.
2C#X/	.	1A	-te at-	2e/	-te	2ee\	ſa-	.	.
*lig	*	*	*	*	*	*	*	*	*
1D	.	.	.	4d/	at-	2ff\	-lu-	.	.
.	.	.	.	4e/	-ten-	.	.	.	.
.	.	2.a\	-ten-	4f\	.	1dd\	-te at-	.	.
.	.	.	.	4d/	.	.	.	.	.
=34-	=34-	=34-	=34-	=34-	=34-	=34-	=34-	=34-	=34-
1A	.	.	.	1e	.	.	.	.	.
.	.	8g\	.	.	.	.	.	.	.
.	.	8f\	.	.	.	.	.	.	.
.	.	2e\	.	.	.	2cc#X\	-ten-	.	.
*Xlig	*	*	*	*	*	*	*	*	*
00D	-de.	00d	-de.	00f#X	-de.	00dd	-de.	.	.
=35-	=35-	=35-	=35-	=35-	=35-	=35-	=35-	=35-	=35-
1ryy	.	1ryy	.	1ryy	.	1ryy	.	.	.
==	==	==	==	==	==	==	==	==	==
*-	*-	*-	*-	*-	*-	*-	*-	*-	*-
!!!system-decoration: [(s1,s2,s3,s4,s5)]
!!!ENC: Andrzej Gręziak
!!!END: 2022-07-12
!!!ENC: Jan Barakat
!!!END: 2022-08-03
